openafpm_cad_core/img/side-of-extended-frame.svg

<svg height="650.173" version="1.2" viewBox="0 0 1234.439 1720.25" width="466.56" xmlns="http://www.w3.org/2000/svg"><g fill="none" fill-rule="evenodd" stroke="#000" stroke-linecap="square" stroke-linejoin="bevel" font-family="Sans" font-size="31.75" font-weight="400"><path d="M267.407 195.618 248.098 471.75m-.388 5.547-1.709 24.453M224.76 805.5l-29.143 416.764M87.846 183.062l-71.79 1026.646m0 0 179.561 12.556M3.5 1389.269l12.556-179.561m179.561 12.556-1.255 17.956m0 0-161.606-11.301m0 0-11.3 161.606m0 0L3.5 1389.269M87.846 183.062l179.561 12.556M100.402 3.5 87.846 183.062m179.561 12.556 1.256-17.956m0 0-161.605-11.301m0 0 11.3-161.605m0 0L100.402 3.5m718.129 802h21.213m-21.213 0H205.257m0 0V501.75m613.274 0V805.5m21.213-303.75V805.5m114.509-333.75v30m-706.543-30v30m706.543-30H247.71m918.376 0v30m-211.833-30h211.833m-211.833 30h211.833m-66.859 1215h-266.7m-627.27-1215h42.453m0 0h570.821m135.722 0H818.531m13.996 303.75v911.25m266.7-1215v1215" stroke="#212529" stroke-linecap="round" stroke-width="7"/><text fill="#212529" font-family="osifont" font-size="67" stroke="none" x="4" xml:space="preserve" y="92.234" transform="rotate(-86 336.706 23.804)">S</text><path d="m390.597 481.714 19.309-276.131m-142.499-9.965 170.431 11.918M248.098 471.75l170.431 11.917" stroke="#212529" stroke-linecap="round" stroke-width="3.5"/><path d="m409.903 205.585-8.26 34.508 11.638.814-3.378-35.322m-19.31 276.131 8.26-34.508-11.638-.814 3.378 35.322" fill="#212529" stroke="#212529" stroke-linecap="round" stroke-width="3.5"/><text fill="#212529" font-family="osifont" font-size="67" stroke="none" x="4" xml:space="preserve" y="92.234" transform="translate(489.043 833.015)">P</text><path d="M818.531 942.512H205.257m0-137.012v165.012M818.531 805.5v165.012" stroke="#212529" stroke-linecap="round" stroke-width="3.5"/><path d="m205.253 942.515 35 5.833v-11.666l-35 5.833m613.27 0-35-5.833v11.666l35-5.833" fill="#212529" stroke="#212529" stroke-linecap="round" stroke-width="3.5"/><text fill="#212529" font-family="osifont" font-size="67" stroke="none" x="4" xml:space="preserve" y="92.234" transform="rotate(-90 364.042 313.569)">Q</text><path d="M159.978 805.5V501.75m45.279 0h-73.279m73.279 303.75h-73.279" stroke="#212529" stroke-linecap="round" stroke-width="3.5"/><path d="m159.973 501.752-5.833 35h11.666l-5.833-35m0 303.753 5.833-35H154.14l5.833 35" fill="#212529" stroke="#212529" stroke-linecap="round" stroke-width="3.5"/><text fill="#212529" font-family="osifont" font-size="67" stroke="none" x="4" xml:space="preserve" y="92.234" transform="translate(929.923 536.816)">R</text><path d="M975.516 646.314H748.531m70-144.564v172.564m21.213-172.564v172.564" stroke="#212529" stroke-linecap="round" stroke-width="3.5"/><path d="m818.523 646.316-35-5.833v11.666l35-5.833m21.22 0 35 5.833v-11.666l-35 5.833" fill="#212529" stroke="#212529" stroke-linecap="round" stroke-width="3.5"/><text fill="#212529" font-size="69" stroke="none" x="4" xml:space="preserve" y="68.047" transform="rotate(-90 1129.044 11.361)">O</text><path d="M1204.689 501.75v1215m-105.462 0h133.462m-133.462-1215h133.462" stroke="#212529" stroke-linecap="round" stroke-width="3.5"/><path d="m1204.683 1716.755 5.833-35h-11.666l5.833 35m0-1215.003-5.833 35h11.666l-5.833-35" fill="#212529" stroke="#212529" stroke-linecap="round" stroke-width="3.5"/><text fill="#212529" font-family="osifont" font-size="67" stroke="none" x="4" xml:space="preserve" y="92.234" transform="rotate(-90 653.579 -291.014)">N</text><path d="M1054.093 571.75V315.828m-99.84 155.922h127.84m-127.84 30h127.84" stroke="#212529" stroke-linecap="round" stroke-width="3.5"/><path d="m1054.093 471.752 5.833-35h-11.666l5.833 35m0 30-5.833 35h11.666l-5.833-35" fill="#212529" stroke="#212529" stroke-linecap="round" stroke-width="3.5"/><text fill="#212529" font-family="osifont" font-size="67" stroke="none" x="4" xml:space="preserve" y="92.234" transform="translate(3.525 1505.345)">SIDE VIEW OF FRAME</text></g></svg>

<svg height="650.173" version="1.2" viewBox="0 0 1234.439 1720.25" width="466.56" xmlns="http://www.w3.org/2000/svg"><g fill="none" fill-rule="evenodd" stroke="#000" stroke-linecap="square" stroke-linejoin="bevel" font-family="Sans" font-size="31.75" font-weight="400"><path d="M267.407 195.618 248.098 471.75H1166.086v30h-66.859v1215h-266.7V805.5H224.76l-29.143 416.764-1.255 17.956-161.606-11.301-11.3 161.606-17.956-1.256 12.556-179.561 71.79-1026.646L100.402 3.5l17.956 1.256-11.3 161.605 161.605 11.301-1.256 17.956" vector-effect="non-scaling-stroke" fill="#f1f3f5" stroke="none"/><path d="M832.527 805.5h7.217V501.75h259.483v1215h-266.7V805.5M818.531 805.5H205.257V501.75h613.274V805.5" vector-effect="non-scaling-stroke" fill="#f1f3f5" stroke="none"/><path d="m87.846 183.062 179.561 12.556-19.309 276.132h-.388v5.547l-1.709 24.453h-40.744V805.5h19.503l-29.143 416.764-179.561-12.556 71.79-1026.646" vector-effect="non-scaling-stroke" fill="#f1f3f5" stroke="none"/><path d="M954.253 471.75v30H247.71v-30h706.543M839.744 501.75h-21.213V805.5h21.213V501.75M954.253 471.75v30H1166.086v-30H954.253M16.056 1209.708l179.561 12.556-1.255 17.956-161.606-11.301-11.3 161.606-17.956-1.256 12.556-179.561M87.846 183.062l179.561 12.556 1.256-17.956-161.605-11.301 11.3-161.605L100.402 3.5 87.846 183.062M247.71 477.297l-1.709 24.453h1.709v-24.453" vector-effect="non-scaling-stroke" fill="#f1f3f5" stroke="none"/><path d="M267.407 195.618 248.098 471.75M247.71 477.297l-1.709 24.453M224.76 805.5l-29.143 416.764M87.846 183.062l-71.79 1026.646M16.056 1209.708l179.561 12.556M3.5 1389.269l12.556-179.561M195.617 1222.264l-1.255 17.956M194.362 1240.22l-161.606-11.301M32.756 1228.919l-11.3 161.606M21.456 1390.525 3.5 1389.269M87.846 183.062l179.561 12.556M100.402 3.5 87.846 183.062M267.407 195.618l1.256-17.956M268.663 177.662l-161.605-11.301M107.058 166.361l11.3-161.605M118.358 4.756 100.402 3.5M818.531 805.5h21.213M818.531 805.5H205.257M205.257 805.5V501.75M818.531 501.75V805.5M839.744 501.75V805.5M954.253 471.75v30M247.71 471.75v30M954.253 471.75H247.71M1166.086 471.75v30M954.253 471.75h211.833M954.253 501.75h211.833M1099.227 1716.75h-266.7M205.257 501.75h42.453M247.71 501.75h570.821M954.253 501.75H818.531M832.527 805.5v911.25M1099.227 501.75v1215" stroke="#212529" stroke-linecap="round" stroke-width="7"/><text fill="#212529" font-family="osifont" font-size="67" stroke="none" x="4" xml:space="preserve" y="92.234" transform="rotate(-86 336.706 23.804)">S</text><path d="m390.597 481.714 19.309-276.131m-142.499-9.965 170.431 11.918M248.098 471.75l170.431 11.917" stroke="#212529" stroke-linecap="round" stroke-width="3.5"/><path d="m409.903 205.585-8.26 34.508 11.638.814-3.378-35.322M390.593 481.716l8.26-34.508-11.638-.814 3.378 35.322" fill="#212529" stroke="#212529" stroke-linecap="round" stroke-width="3.5"/><text fill="#212529" font-family="osifont" font-size="67" stroke="none" x="4" xml:space="preserve" y="92.234" transform="translate(489.043 833.015)">P</text><path d="M818.531 942.512H205.257m0-137.012v165.012M818.531 805.5v165.012" stroke="#212529" stroke-linecap="round" stroke-width="3.5"/><path d="m205.253 942.515 35 5.833v-11.666l-35 5.833M818.523 942.515l-35-5.833v11.666l35-5.833" fill="#212529" stroke="#212529" stroke-linecap="round" stroke-width="3.5"/><text fill="#212529" font-family="osifont" font-size="67" stroke="none" x="4" xml:space="preserve" y="92.234" transform="rotate(-90 364.042 313.569)">Q</text><path d="M159.978 805.5V501.75m45.279 0h-73.279m73.279 303.75h-73.279" stroke="#212529" stroke-linecap="round" stroke-width="3.5"/><path d="m159.973 501.752-5.833 35h11.666l-5.833-35M159.973 805.505l5.833-35H154.14l5.833 35" fill="#212529" stroke="#212529" stroke-linecap="round" stroke-width="3.5"/><text fill="#212529" font-family="osifont" font-size="67" stroke="none" x="4" xml:space="preserve" y="92.234" transform="translate(929.923 536.816)">R</text><path d="M975.516 646.314H748.531m70-144.564v172.564m21.213-172.564v172.564" stroke="#212529" stroke-linecap="round" stroke-width="3.5"/><path d="m818.523 646.316-35-5.833v11.666l35-5.833M839.743 646.316l35 5.833v-11.666l-35 5.833" fill="#212529" stroke="#212529" stroke-linecap="round" stroke-width="3.5"/><text fill="#212529" font-family="Sans" font-size="69" stroke="none" x="4" xml:space="preserve" y="68.047" transform="rotate(-90 1129.044 11.361)">O</text><path d="M1204.689 501.75v1215m-105.462 0h133.462m-133.462-1215h133.462" stroke="#212529" stroke-linecap="round" stroke-width="3.5"/><path d="m1204.683 1716.755 5.833-35h-11.666l5.833 35M1204.683 501.752l-5.833 35h11.666l-5.833-35" fill="#212529" stroke="#212529" stroke-linecap="round" stroke-width="3.5"/><text fill="#212529" font-family="osifont" font-size="67" stroke="none" x="4" xml:space="preserve" y="92.234" transform="rotate(-90 653.579 -291.014)">N</text><path d="M1054.093 571.75V315.828m-99.84 155.922h127.84m-127.84 30h127.84" stroke="#212529" stroke-linecap="round" stroke-width="3.5"/><path d="m1054.093 471.752 5.833-35h-11.666l5.833 35M1054.093 501.752l-5.833 35h11.666l-5.833-35" fill="#212529" stroke="#212529" stroke-linecap="round" stroke-width="3.5"/><text fill="#212529" font-family="osifont" font-size="67" stroke="none" x="4" xml:space="preserve" y="92.234" transform="translate(3.525 1505.345)">SIDE VIEW OF FRAME</text></g></svg>
